X:1072
T:Up Tails All
C:John Playford, 1651
M:2/2
R:Reel
L:1/4
Q:1/2=110
K:G
d | "G"d2 BA/B/ | "D7"cc AA | "G"dd B>c | "D7"d3 e |\
"G"d2 B2 | "Am"c2 A2 | "D7"Ldz LDz | "G"G3 |]
N:Replace by blank line and X field
T:Up Tails All - second tune
C:Colin Hume, 2018
M:2/2
R:Reel
L:1/4
S:Colin Hume's website,  colinhume.com  - chords can also be printed below the stave.
Q:1/2=110
K:D
A | "D"d2 Ad/e/ | "Bm"f2 de/f/ | "Em"gg f>d | "A7"e3 f/g/ |\
"D"aa fa | "Em"g>f ef/g/ | "A7"Laz LAz | "D"d3 |]

